X: 1545
T: Olmada Diller Rubûde
C: Abdülhalim Ağa
O: Turkey
F: http://compmusic.upf.edu/node/140
N: hicaz-humayun--beste--hafif--olmada_diller--abdulhalim_aga
N: makam= hicaz-humayun
N: form= beste
N: usul= hafif = 32/4
M: 32/4
L: 1/16
K: C _7/8B ^c  
Q: 1/4=69
%%MIDI tuningsystem comma53
A8 A3 G ^3/4F2 G2  | A2 B2 A2 c2 c B B A B2 A2  | \
w:  Ah  ol  |  *  *  *  *  ma  | 
A2 d4 c2 B2 A2 B2 d2  | 
w:  *  da   | 
c3 B c B B A A8  | A8 c4 d4  | d2 e2 d2 c2 c2 d e d2 e2  | \
w:  dil  |  *  ler   |  *  *  *  *  *  *  *  *  ru  | 
f6 e2 d3 c B2 d2  | 
w:  bû  | 
c4 d4 c2 d2 e2 {f}e d  | d6 z2 G4 A4  | \
w:  de   |  *  ah   | 
A3 G ^3/4F4 z2 G A G2 A2  | B3 A B2 c2 B4 c4  | 
w:  *  *  *  gam *  *  ze   |  i   | 
z4 A2 B2 c4 d4  | d6 c2 c2 g2 f2 e2  | \
w:  câ  |  *  *  du  | 
d2 c2 B2 A2 A2 e2 d2 c2  | c3 B A2 c2 B2 A2 e2 f2  | 
w:  *  *  *  *  *  *  *  su  |  na  *  *  *  *  *  a  | 
(3e2d2e2 (3d2c2d2 (3c2B2c2 B2 A2  | \
w:  man    | 
A8 A3 G ^3/4F2 G2  | A2 G ^3/4F c2 B A A8  | 
w:  Ah  *  *  be  li   |  be  *  *  *  *  *  li   | 
z2 A4 G2 G2 A4 B2  | d6 c2 B3 A G2 ^3/4F2  | \
w:  tir  *  *  ye  le   |  lel   | 
G2 {A}G ^3/4F G2 A2 G4 F2 G2  | A6 c2 B4 A4  | 
w:  li  *  *  *  *  *  *  câ nım   |  yâ  *  *  lâ   | 
z2 d4 c2 B2 A2 B2 d2  | c3 B B2 {c}B A A4 e2 f2  | \
w:  yel  le  lel  *  *  li   |  vay   *  *  *  *  *  *  A  | 
e2 d4 d c d6 c2  | 
w:  man  *  *  *  *  a  | 
e6 d c c6 B2  | d6 c B B6 A2  | c6 B A A3 G ^3/4F2 A2  | \
w:  man  *  *  *  a  |  man  *  *  *  a  |  man   | 
G4 ^3/4F2 G2 A4 B4  | 
w:  *  câ  | 
B2 d4 c2 c2 B2 A2 d2  | c3 B c B {c}B A A4 ^G2 {c}B A  | \
w:  *  du *  *  *  *  su  |  na    | 
A6 z2 z8  | A8 A3 G ^3/4F2 G2  | 
w:   |  Ah  ol  | 
A2 B2 A2 c2 c B B A B2 A2  | A2 d4 c2 B2 A2 B2 d2  | \
w:  *  *  *  *  ma  |  *  da   | 
c3 B c B B A A8  | 
w:  dil  | 
A8 c4 d4  | d2 e2 d2 c2 c2 d e d2 e2  | \
w:  *  ler   |  *  *  *  *  *  *  *  *  ru  | 
f6 e2 d3 c B2 d2  | c4 d4 c2 d2 e2 {f}e d  | 
w:  bû  |  de   | 
d6 z2 G4 A4  | A3 G ^3/4F4 z2 G A G2 A2  | \
w:  *  ah   |  *  *  *  gam *  *  ze   | 
B3 A B2 c2 B4 c4  | z4 A2 B2 c4 d4  | 
w:  i   |  câ  | 
d6 c2 c2 g2 f2 e2  | d2 c2 B2 A2 A2 e2 d2 c2  | \
w:  *  *  du  |  *  *  *  *  *  *  *  su  | 
c3 B A2 c2 B2 A2 e2 f2  | 
w:  na  *  *  *  *  *  a  | 
(3e2d2e2 (3d2c2d2 (3c2B2c2 B2 A2  | \
w:  man    | 
A8 A3 G ^3/4F2 G2  | A2 G ^3/4F c2 B A A8  | 
w:  Ah  *  *  be  li   |  be  *  *  *  *  *  li   | 
z2 A4 G2 G2 A4 B2  | d6 c2 B3 A G2 ^3/4F2  | \
w:  tir  *  *  ye  le   |  lel   | 
G2 {A}G ^3/4F G2 A2 G4 F2 G2  | A6 c2 B4 A4  | 
w:  li  *  *  *  *  *  *  câ nım   |  yâ  *  *  lâ   | 
z2 d4 c2 B2 A2 B2 d2  | c3 B B2 {c}B A A4 e2 f2  | \
w:  yel  le  lel  *  *  li   |  vay   *  *  *  *  *  *  A  | 
e2 d4 d c d6 c2  | 
w:  man  *  *  *  *  a  | 
e6 d c c6 B2  | d6 c B B6 A2  | c6 B A A3 G ^3/4F2 A2  | \
w:  man  *  *  *  a  |  man  *  *  *  a  |  man   | 
G4 ^3/4F2 G2 A4 B4  | 
w:  *  câ  | 
B2 d4 c2 c2 B2 A2 d2  | c3 B c B {c}B A A4 ^G2 {c}B A  | \
w:  *  du *  *  *  *  su  |  na    | 
A6 z2 ^f8  | ^e4 ^f4 z2 d4 e2  | 
w:  *  SAZ  |  Ah  *  çil  | 
^f4 ^e2 g f f8  | ^f2 g2 f2 ^e2 d4 e2 f2  | \
w:  *  *  *  *  le   |  *  i   | 
^e d c _1/4B c2 d2 c2 d2 =e2 {f}e d  | 
w:  sah  | 
d6 c2 z2 d4 {e}d c  | c2 d4 c2 c2 d4 ^e2  | \
w:  *  *  tın  |  *  *  *  *  *  çe  | 
^f2 g2 f2 ^e2 d2 d e f g a2  | 
w:  ker   | 
g3 ^f ^e2 f2 e2 f2 g2 g f  | ^f8 c8  | \
w:  her   |  *  dem   | 
c2 d2 c2 _1/4B2 c3 =B ^A2 B c  | =B4 c8 e4  | 
w:  *  *  *  *  *  *  *  ke  |  man   | 
e2 d4 e2 d2 c4 d2  | {d}c2 B2 B2 A2 e3 d d3 c  | \
w:  eb  |  *  *  *  *  *  rû  | 
c3 B B3 A B3 A B2 G2  | 
w:  *  *  *  *  *  *  *  le  | 
B3 A B2 c2 B2 A2 e2 f2  | (3e2d2e2 (3d2c2d2 (3c2B2c2 B2 A2  | \
w:  rin  *  *  *  *  *  a  |  man    | 
A8 A3 G ^3/4F2 G2  | 
w:  Ah  *  *  be  li   | 
A2 G ^3/4F c2 B A A8  | z2 A4 G2 G2 A4 B2  | \
w:  be  *  *  *  *  *  li   |  tir  *  *  ye  le   | 
d6 c2 B2 B A G2 ^3/4F2  | G2 G ^3/4F G2 A2 G4 F2 G2  | 
w:  lel   |  li  *  *  *  *  *  câ nım   | 
A6 c2 B4 A4  | z2 d4 c2 B2 A2 B2 d2  | \
w:  yâ  *  *  lâ   |  ye  le  lel  *  *  li   | 
c3 B B2 B A A4 e2 f2  | e2 d4 d c d6 c2  | 
w:  vay   *  *  *  *  *  A  |  man  *  *  *  *  a  | 
e6 d c c6 B2  | d6 c B B6 A2  | c6 B A A3 G ^3/4F2 A2  | \
w:  man  *  *  *  a  |  man  *  *  *  a  |  man   | 
G4 ^3/4F2 G2 A4 B4  | 
w:  eb  | 
B2 d4 c2 B2 A2 B2 d2  | c3 B c B B A A4 ^G2 {c}B A  | \
w:  *  rû *  *  *  *  le  |  rin    | 
A6 z2 z8  | A8 A3 G ^3/4F2 G2  | 
w:   |  SAZ Â  | 
A2 B2 A2 c2 c B {c}B A B2 A2  | A2 d4 c2 B2 A2 B2 d2  | \
w:  *  *  *  *  fe  |  *  rin   | 
c3 B c B {c}B A A8  | 
w:  er  | 
A8 c4 d4  | d2 e2 d2 c2 c2 d e d2 e2  | \
w:  *  bâb_  |  *  *  *  *  *  *  *  *  ı   | 
f6 e2 d3 c B2 d2  | c4 d4 c2 d2 e2 {f}e d  | 
w:  aş  |  kın   | 
d6 z2 G4 A4  | A3 G ^3/4F4 z2 G A G2 A2  | \
w:  *  ah   |  *  *  *  kuv *  *  vet_  | 
B3 A B2 c2 B4 c4  | z4 A2 B2 c4 d4  | 
w:  i   |  bâ  | 
d6 c2 c2 g2 f2 e2  | d2 c2 B2 A2 A2 e2 d2 c2  | \
w:  *  *  zu  |  *  *  *  *  *  *  *  su  | 
c3 B A2 c2 B2 A2 e2 f2  | 
w:  na  *  *  *  *  *  a  | 
(3e2d2e2 (3d2c2d2 (3c2B2c2 B2 A2  | \
w:  man    | 
A8 A3 G ^3/4F2 G2  | A2 G ^3/4F c2 B A A8  | 
w:  Ah  *  *  be  li   |  be  *  *  *  *  *  li   | 
z2 A4 G2 G2 A4 B2  | d6 c2 B2 B A G2 ^3/4F2  | \
w:  tir  *  *  ye  le   |  lel   | 
G2 G ^3/4F G2 A2 G4 F2 G2  | 
w:  li  *  *  *  *  *  câ nım   | 
A6 c2 B4 A4  | z2 d4 c2 B2 A2 B2 d2  | \
w:  yâ  *  *  lâ   |  ye  le  lel  *  *  li   | 
c3 B B2 B A A4 e2 f2  | e2 d4 d c d6 c2  | 
w:  vay   *  *  *  *  *  A  |  man  *  *  *  *  a  | 
e6 d c c6 B2  | d6 c B B6 A2  | c6 B A A3 G ^3/4F2 A2  | \
w:  man  *  *  *  a  |  man  *  *  *  a  |  man   | 
G4 ^3/4F2 G2 A4 B4  | 
w:  eb  | 
B2 d4 c2 B2 A2 B2 d2  | c3 B c B B A A4 ^G2 {c}B A  | \
w:  *  rû *  *  *  *  le  |  rin    | 
A6 z2 z8  | |


